X: 16044
T: Green Cottage, The
R: polka
M: 2/4
K: Eminor
B/A/|:"Em"GE ED|B,E E>F|GA/G/ ED|"G"GA "Bm"BB/A/|
"Em"GE ED|B,E EF|"G"GA "Bm"B/d/B/A/|"Em"GE EB/A/:|
|:"Em"Be e>f|ed B/d/B/A/|Be ed|"C"e2e>f|
"G"g2"D"fg/f/|"Em"ed B>A|BE ED|1 "G"G>A "D"B>A:|2 "Em"E3||

